svg/boy_0105y_negative.svg

<svg width="48" height="48" viewBox="0 0 48 48" fill="none" xmlns="http://www.w3.org/2000/svg">
<path fill-rule="evenodd" clip-rule="evenodd" d="M0 0V47.9994H47.9994V0H0ZM23.9997 3.99995C24.0057 3.99995 24.0167 4.00375 24.0227 4.00385C25.0447 4.00925 26.0617 4.13185 27.0567 4.36715C28.4816 4.75004 28.9236 4.91014 30.0506 5.45303C34.6016 7.7388 37.4775 12.3928 37.4835 17.4859C37.4845 24.9338 31.4476 30.9727 23.9997 30.9727C16.5518 30.9727 10.5129 24.9338 10.5139 17.4859C10.5179 10.484 15.8828 4.65004 22.8607 4.05905C23.1947 4.02895 23.5287 4.01265 23.8627 4.00785C23.9087 4.00725 23.9537 4.00005 23.9997 4.00005V3.99995ZM22.3087 9.89638C23.5837 12.0698 23.8287 12.8348 22.0657 13.7268C22.5507 10.4769 18.9068 9.90788 20.3067 13.2168C20.7107 14.1728 19.4428 12.6798 18.4018 12.9858C16.7168 13.4828 14.5628 17.9838 12.9278 15.1018C12.1378 13.2168 11.8379 16.5838 11.7769 17.4858C11.7769 24.2357 17.2498 29.7086 23.9997 29.7086C30.7486 29.7076 36.2185 24.2347 36.2185 17.4858C36.2165 16.7148 36.1435 15.9488 35.9975 15.1948C34.7996 9.68658 26.5037 17.1508 25.7127 12.8398C25.1197 10.3189 22.7877 9.85418 22.3087 9.89638ZM19.3108 15.9608C20.0078 15.9618 20.5737 16.5268 20.5737 17.2248C20.5747 17.9228 20.0088 18.4878 19.3108 18.4878C18.6108 18.4888 18.0458 17.9238 18.0468 17.2248C18.0468 16.5258 18.6118 15.9598 19.3108 15.9608ZM28.5286 15.9608C29.2266 15.9618 29.7916 16.5268 29.7926 17.2248C29.7936 17.9228 29.2276 18.4878 28.5286 18.4878C27.8297 18.4888 27.2627 17.9238 27.2637 17.2248C27.2637 16.5258 27.8307 15.9598 28.5286 15.9608ZM19.9837 22.7617C20.1927 22.7417 20.4217 22.9077 20.4787 23.3157C20.6467 24.6417 22.2047 25.6587 24.0697 25.6597C25.9977 25.6197 27.5407 24.7097 28.5266 23.3157C28.3556 24.9837 26.4127 26.2737 24.0697 26.2747C21.7297 26.2727 19.7858 24.9827 19.6148 23.3157C19.5878 22.9837 19.7758 22.7797 19.9837 22.7617ZM3.99995 34.0156H43.9974V44.0154H3.99995V34.0156ZM7.703 35.3456C6.92791 35.3456 6.33342 35.6026 5.91983 36.1165C5.50953 36.6315 5.30463 37.3855 5.30463 38.3785V39.6885C5.31443 40.6435 5.52523 41.3745 5.93543 41.8865C6.34582 42.3975 6.93771 42.6535 7.7128 42.6535C8.49769 42.6535 9.09279 42.3935 9.49988 41.8725C9.90698 41.3515 10.1109 40.5985 10.1109 39.6145V38.3065C10.1019 37.3515 9.89068 36.6205 9.48038 36.1125C9.06999 35.6016 8.47809 35.3456 7.703 35.3456ZM23.0818 35.3456C22.3068 35.3456 21.7118 35.6026 21.2988 36.1165C20.8878 36.6315 20.6838 37.3855 20.6838 38.3785V39.6885C20.6928 40.6435 20.9028 41.3745 21.3118 41.8865C21.7228 42.3975 22.3168 42.6535 23.0918 42.6535C23.8768 42.6535 24.4718 42.3935 24.8788 41.8725C25.2858 41.3515 25.4898 40.5985 25.4898 39.6145V38.3065C25.4798 37.3515 25.2698 36.6205 24.8588 36.1125C24.4488 35.6016 23.8568 35.3456 23.0818 35.3456ZM14.3479 35.4336L11.4 36.4875V37.6365L13.0859 37.1145V42.5565H14.4979V35.4336H14.3479ZM27.0678 35.4426L26.6578 39.0585L27.7808 39.3375L27.9178 39.2105C28.1257 39.0345 28.3987 38.9445 28.7337 38.9445C29.0987 38.9445 29.3787 39.0545 29.5777 39.2695C29.7767 39.4835 29.8767 39.7925 29.8767 40.1965C29.8767 40.6165 29.7897 40.9425 29.6167 41.1735C29.4447 41.4015 29.1997 41.5155 28.8807 41.5155C28.5937 41.5155 28.3607 41.4325 28.1817 41.2695C28.0057 41.1035 27.9017 40.8735 27.8728 40.5775H26.4768C26.4898 40.9815 26.6028 41.3415 26.8138 41.6575C27.0288 41.9735 27.3188 42.2185 27.6878 42.3945C28.0547 42.5665 28.4547 42.6535 28.8847 42.6535C29.3767 42.6535 29.8027 42.5525 30.1637 42.3535C30.5257 42.1525 30.8037 41.8725 30.9957 41.5115C31.1907 41.1465 31.2887 40.7345 31.2887 40.2745C31.2887 39.5195 31.0967 38.9315 30.7127 38.5115C30.3287 38.0915 29.7967 37.8805 29.1187 37.8805C28.7407 37.8805 28.3837 37.9705 28.0487 38.1495L28.2247 36.6205H31.0547V35.4426H27.0678ZM31.7187 35.4426L34.0527 39.9765V42.5565H35.5427V39.9765L37.8786 35.4426H36.2746L34.7967 38.6475L33.3257 35.4426H31.7187ZM7.703 36.4875C8.045 36.4875 8.2954 36.6235 8.45499 36.8945C8.61779 37.1615 8.69909 37.5895 8.69909 38.1795V39.8685C8.69259 40.4255 8.61389 40.8385 8.46079 41.1085C8.3078 41.3795 8.058 41.5155 7.7128 41.5155C7.36431 41.5155 7.11071 41.3755 6.95111 41.0955C6.79472 40.8115 6.71672 40.3795 6.71672 39.8005V38.0715C6.72652 37.5275 6.80841 37.1285 6.96471 36.8745C7.12431 36.6175 7.37081 36.4875 7.703 36.4875ZM23.0818 36.4875C23.4238 36.4875 23.6738 36.6235 23.8338 36.8945C23.9968 37.1615 24.0778 37.5895 24.0778 38.1795V39.8685C24.0718 40.4255 23.9908 40.8385 23.8378 41.1085C23.6848 41.3795 23.4368 41.5155 23.0918 41.5155C22.7428 41.5155 22.4898 41.3755 22.3298 41.0955C22.1738 40.8115 22.0938 40.3795 22.0938 39.8005V38.0715C22.1038 37.5275 22.1868 37.1285 22.3438 36.8745C22.5028 36.6175 22.7498 36.4875 23.0818 36.4875ZM40.1796 37.1735C39.5506 37.1735 39.0406 37.3305 38.6496 37.6455C38.2626 37.9585 38.0676 38.3485 38.0676 38.8175C38.0676 39.6225 38.6976 40.1575 39.9546 40.4215C40.3326 40.4995 40.6056 40.5875 40.7746 40.6885C40.9476 40.7865 41.0346 40.9225 41.0346 41.0955C41.0346 41.2615 40.9636 41.3975 40.8236 41.5015C40.6866 41.6025 40.4826 41.6515 40.2126 41.6515C39.9226 41.6515 39.6916 41.5865 39.5196 41.4525C39.3466 41.3195 39.2546 41.1255 39.2416 40.8745H37.9016C37.9016 41.1935 37.9996 41.4925 38.1946 41.7695C38.3906 42.0425 38.6596 42.2595 39.0016 42.4195C39.3466 42.5755 39.7406 42.6535 40.1836 42.6535C40.8376 42.6535 41.3736 42.5045 41.7866 42.2085C42.2006 41.9085 42.4056 41.5185 42.4056 41.0365C42.4056 40.3625 42.0346 39.8885 41.2886 39.6145C41.0476 39.5265 40.7496 39.4485 40.3976 39.3805C40.0466 39.3085 39.7956 39.2245 39.6456 39.1305C39.4996 39.0325 39.4276 38.9055 39.4276 38.7495C39.4276 38.5835 39.4926 38.4465 39.6226 38.3395C39.7526 38.2315 39.9356 38.1795 40.1736 38.1795C40.4506 38.1795 40.6546 38.2445 40.7846 38.3785C40.9146 38.5085 40.9796 38.6745 40.9796 38.8765H42.3926C42.3926 38.3715 42.1906 37.9615 41.7866 37.6455C41.3866 37.3305 40.8506 37.1735 40.1796 37.1735ZM16.8669 38.9405V40.0795H19.6169V38.9405H16.8669Z" fill="#333333"/>
</svg>

<?xml version="1.0" encoding="UTF-8" standalone="no"?>
<!-- Created with Inkscape (http://www.inkscape.org/) -->
<svg id="svg8" xmlns:rdf="http://www.w3.org/1999/02/22-rdf-syntax-ns#" xmlns="http://www.w3.org/2000/svg" height="48" viewBox="0 0 12.7 12.7" width="48" version="1.1" xmlns:cc="http://creativecommons.org/ns#" xmlns:dc="http://purl.org/dc/elements/1.1/">
 <title id="title4753">UIO-icon</title>
 <metadata id="metadata5">
  <rdf:RDF>
   <cc:Work rdf:about="">
    <dc:format>image/svg+xml</dc:format>
    <dc:type rdf:resource="http://purl.org/dc/dcmitype/StillImage"/>
    <dc:title>UIO-icon</dc:title>
    <dc:creator>
     <cc:Agent>
      <dc:title>Joaquín Urbano</dc:title>
     </cc:Agent>
    </dc:creator>
    <dc:rights>
     <cc:Agent>
      <dc:title>GPL</dc:title>
     </cc:Agent>
    </dc:rights>
   </cc:Work>
  </rdf:RDF>
 </metadata>
 <path id="rect817" d="m0 0v48h48v-48h-48zm24 4c0.006 0 0.017 0.0038 0.023 0.0039 1.022 0.0054 2.039 0.128 3.034 0.3633 1.425 0.3829 1.867 0.543 2.994 1.0859 4.551 2.2858 7.427 6.9399 7.433 12.033 0.001 7.448-6.036 13.487-13.484 13.487s-13.487-6.039-13.486-13.487c0.004-7.002 5.369-12.836 12.347-13.427 0.334-0.0301 0.668-0.0464 1.002-0.0512 0.046-0.0006 0.091-0.0078 0.137-0.0078zm-1.691 5.8965c1.275 2.1735 1.52 2.9385-0.243 3.8305 0.485-3.25-3.159-3.819-1.759-0.51 0.404 0.956-0.864-0.537-1.905-0.231-1.685 0.497-3.839 4.998-5.474 2.116-0.79-1.885-1.09 1.482-1.151 2.384 0 6.75 5.473 12.223 12.223 12.223 6.749-0.001 12.219-5.474 12.219-12.223-0.002-0.771-0.075-1.537-0.221-2.291-1.198-5.5083-9.494 1.956-10.285-2.355-0.593-2.521-2.925-2.9857-3.404-2.9435zm-2.998 6.0645c0.697 0.001 1.263 0.566 1.263 1.264 0.001 0.698-0.565 1.263-1.263 1.263-0.7 0.001-1.265-0.564-1.264-1.263 0-0.699 0.565-1.265 1.264-1.264zm9.218 0c0.698 0.001 1.263 0.566 1.264 1.264s-0.565 1.263-1.264 1.263c-0.699 0.001-1.266-0.564-1.265-1.263 0-0.699 0.567-1.265 1.265-1.264zm-8.545 6.801c0.209-0.02 0.438 0.146 0.495 0.554 0.168 1.326 1.726 2.343 3.591 2.344 1.928-0.04 3.471-0.95 4.457-2.344-0.171 1.668-2.114 2.958-4.457 2.959-2.34-0.002-4.284-1.292-4.455-2.959-0.027-0.332 0.161-0.536 0.369-0.554zm-15.984 11.254h39.998v10h-39.998v-10zm3.7031 1.33c-0.7751 0-1.3696 0.257-1.7832 0.771-0.4103 0.515-0.6152 1.269-0.6152 2.262v1.31c0.0098 0.955 0.2206 1.686 0.6308 2.198 0.4104 0.511 1.0023 0.767 1.7774 0.767 0.7849 0 1.38-0.26 1.7871-0.781s0.611-1.274 0.611-2.258v-1.308c-0.009-0.955-0.2202-1.686-0.6305-2.194-0.4104-0.511-1.0023-0.767-1.7774-0.767zm15.379 0c-0.775 0-1.37 0.257-1.783 0.771-0.411 0.515-0.615 1.269-0.615 2.262v1.31c0.009 0.955 0.219 1.686 0.628 2.198 0.411 0.511 1.005 0.767 1.78 0.767 0.785 0 1.38-0.26 1.787-0.781s0.611-1.274 0.611-2.258v-1.308c-0.01-0.955-0.22-1.686-0.631-2.194-0.41-0.511-1.002-0.767-1.777-0.767zm-8.734 0.088l-2.948 1.054v1.149l1.686-0.522v5.442h1.412v-7.123h-0.15zm12.72 0.009l-0.41 3.616 1.123 0.279 0.137-0.127c0.208-0.176 0.481-0.266 0.816-0.266 0.365 0 0.645 0.11 0.844 0.325 0.199 0.214 0.299 0.523 0.299 0.927 0 0.42-0.087 0.746-0.26 0.977-0.172 0.228-0.417 0.342-0.736 0.342-0.287 0-0.52-0.083-0.699-0.246-0.176-0.166-0.28-0.396-0.309-0.692h-1.396c0.013 0.404 0.126 0.764 0.337 1.08 0.215 0.316 0.505 0.561 0.874 0.737 0.367 0.172 0.767 0.259 1.197 0.259 0.492 0 0.918-0.101 1.279-0.3 0.362-0.201 0.64-0.481 0.832-0.842 0.195-0.365 0.293-0.777 0.293-1.237 0-0.755-0.192-1.343-0.576-1.763s-0.916-0.631-1.594-0.631c-0.378 0-0.735 0.09-1.07 0.269l0.176-1.529h2.83v-1.178h-3.987zm4.651 0l2.334 4.534v2.58h1.49v-2.58l2.336-4.534h-1.604l-1.478 3.205-1.471-3.205h-1.607zm-24.016 1.045c0.342 0 0.5924 0.136 0.752 0.407 0.1628 0.267 0.2441 0.695 0.2441 1.285v1.689c-0.0065 0.557-0.0852 0.97-0.2383 1.24-0.153 0.271-0.4028 0.407-0.748 0.407-0.3485 0-0.6021-0.14-0.7617-0.42-0.1564-0.284-0.2344-0.716-0.2344-1.295v-1.729c0.0098-0.544 0.0917-0.943 0.248-1.197 0.1596-0.257 0.4061-0.387 0.7383-0.387zm15.379 0c0.342 0 0.592 0.136 0.752 0.407 0.163 0.267 0.244 0.695 0.244 1.285v1.689c-0.006 0.557-0.087 0.97-0.24 1.24-0.153 0.271-0.401 0.407-0.746 0.407-0.349 0-0.602-0.14-0.762-0.42-0.156-0.284-0.236-0.716-0.236-1.295v-1.729c0.01-0.544 0.093-0.943 0.25-1.197 0.159-0.257 0.406-0.387 0.738-0.387zm17.098 0.686c-0.629 0-1.139 0.157-1.53 0.472-0.387 0.313-0.582 0.703-0.582 1.172 0 0.805 0.63 1.34 1.887 1.604 0.378 0.078 0.651 0.166 0.82 0.267 0.173 0.098 0.26 0.234 0.26 0.407 0 0.166-0.071 0.302-0.211 0.406-0.137 0.101-0.341 0.15-0.611 0.15-0.29 0-0.521-0.065-0.693-0.199-0.173-0.133-0.265-0.327-0.278-0.578h-1.34c0 0.319 0.098 0.618 0.293 0.895 0.196 0.273 0.465 0.49 0.807 0.65 0.345 0.156 0.739 0.234 1.182 0.234 0.654 0 1.19-0.149 1.603-0.445 0.414-0.3 0.619-0.69 0.619-1.172 0-0.674-0.371-1.148-1.117-1.422-0.241-0.088-0.539-0.166-0.891-0.234-0.351-0.072-0.602-0.156-0.752-0.25-0.146-0.098-0.218-0.225-0.218-0.381 0-0.166 0.065-0.303 0.195-0.41 0.13-0.108 0.313-0.16 0.551-0.16 0.277 0 0.481 0.065 0.611 0.199 0.13 0.13 0.195 0.296 0.195 0.498h1.413c0-0.505-0.202-0.915-0.606-1.231-0.4-0.315-0.936-0.472-1.607-0.472zm-23.313 1.767v1.139h2.75v-1.139h-2.75z" fill-rule="evenodd" transform="scale(.26458)" fill="#333"/>
</svg>
